Numix/24/actions/appointment.svg

<svg width="24" xmlns="http://www.w3.org/2000/svg" height="24" viewBox="0 0 24 24">
<path style="fill:#f9f9f9;fill-rule:evenodd" d="m 20.237288,11.898305 a 8.7966099,7.8305087 0 1 1 -17.5932202,0 8.7966099,7.8305087 0 1 1 17.5932202,0 z" transform="matrix(1.1368 0 0 1.27706 -1.00578 -3.1948)"/>
<path style="fill:#3689e6" d="M 11.984375,5.484375 C 11.433594,5.492188 10.992188,5.949219 11,6.5 l 0,5.5 c 0,0.234375 0.08203,0.460938 0.234375,0.640625 l 2.5,3 c 0.222656,0.300781 0.589844,0.449219 0.957031,0.394531 0.367188,-0.05859 0.671875,-0.3125 0.792969,-0.664062 0.121094,-0.351563 0.03516,-0.742188 -0.21875,-1.011719 L 13,11.640625 13,6.5 C 13.003906,6.230469 12.898438,5.96875 12.707031,5.777344 12.515625,5.585938 12.253906,5.480469 11.984375,5.484375 z"/>
<path style="fill:#aaa" d="M 12,2 C 6.488281,2 2,6.488281 2,12 2,17.511719 6.488281,22 12,22 17.511719,22 22,17.511719 22,12 22,6.488281 17.511719,2 12,2 z m 0,2 c 4.429688,0 8,3.570312 8,8 0,4.429688 -3.570312,8 -8,8 C 7.570312,20 4,16.429688 4,12 4,7.570312 7.570312,4 12,4 z"/>
</svg>

<svg width="24" xmlns="http://www.w3.org/2000/svg" height="24" viewBox="0 0 24 24" xmlns:xlink="http://www.w3.org/1999/xlink">
<g style="fill:#aaa">
<path d="M 11.984375 5.484375 C 11.433594 5.492188 10.992188 5.949219 11 6.5 L 11 12 C 11 12.234375 11.082031 12.460938 11.234375 12.640625 L 13.734375 15.640625 C 13.957031 15.941406 14.324219 16.089844 14.691406 16.035156 C 15.058594 15.976562 15.363281 15.722656 15.484375 15.371094 C 15.605469 15.019531 15.519531 14.628906 15.265625 14.359375 L 13 11.640625 L 13 6.5 C 13.003906 6.230469 12.898438 5.96875 12.707031 5.777344 C 12.515625 5.585938 12.253906 5.480469 11.984375 5.484375 Z "/>
<path d="M 12 2 C 6.488281 2 2 6.488281 2 12 C 2 17.511719 6.488281 22 12 22 C 17.511719 22 22 17.511719 22 12 C 22 6.488281 17.511719 2 12 2 Z M 12 4 C 16.429688 4 20 7.570312 20 12 C 20 16.429688 16.429688 20 12 20 C 7.570312 20 4 16.429688 4 12 C 4 7.570312 7.570312 4 12 4 Z "/>
</g>
</svg>
